X:1
T:The Tarbolton
R:reel
M:4/4
L:1/8
K:Edor
|:EeeB e2BA|GBAF GFEF|Dddc d2AG|FDAG FDDF|
|EeeB efge|fedf edBA|GABG FGA=c|1 BGAF GEED:|2 BGAF GEE2|]
|:gfef gebe|gebe gfef|d2fd Adfd|BdAG FDDF|
|G2BG F2AF|E2ef gfed|B2=cB AGFA|1 BGAF GEE2:|2 BGAF GEED|]